assets/img/braze_icons/wallet-01.svg

<svg fill="none" height="24" viewBox="0 0 24 24" width="24" xmlns="http://www.w3.org/2000/svg"><g fill="#801ed7"><path d="m5.16146 3h13.67704c.5272-.00001.982-.00003 1.3565.03057.3954.03231.7886.10362 1.167.29642.5645.28762 1.0234.74656 1.311 1.31104.1928.37838.2641.7716.2964 1.16695.0026.03184.005.06371.0073.09558.0362.52028.0544.78042-.0486 1.00948-.0866.19261-.2534.37151-.4396.47129-.2213.11867-.5104.11867-1.0885.11867h-18.8c-.57813 0-.86719 0-1.08854-.11867-.18612-.09978-.35297-.27868-.43956-.47129-.102988-.22906-.084846-.4892-.04856-1.00948.00222-.03188.00463-.06374.00723-.09558.0323-.39535.10362-.78857.29641-1.16695.28762-.56448.74656-1.02343 1.31105-1.31105.37838-.19279.7716-.26411 1.16694-.29641.37455-.0306.82937-.03059 1.35649-.03057z"/><path d="m1.8 9.5c-.28003 0-.42004 0-.527.0545-.09408.04793-.17057.12442-.21851.21851-.054494.10695-.054494.24699-.054494.52699v.4c0 .28 0 .42.054494.527.04794.0941.12443.1706.21851.2185.10696.0545.24697.0545.527.0545h3.82104c.4684-.0002.82262-.0003 1.17258.0621.30909.0551.61062.1464.89836.272.32578.1422.6204.3388 1.01002.5987l.64346.429c.47811.3187.61926.4085.76274.4712.1438.0628.2946.1084.4491.136.1541.0274.3214.031.896.031h1.0934c.5746 0 .7418-.0036.8959-.031.1546-.0276.3054-.0732.4492-.136.1435-.0627.2846-.1525.7627-.4712l.6434-.429c.3897-.2599.6843-.4565 1.0101-.5987.2878-.1256.5893-.2169.8984-.272.3499-.0624.7041-.0623 1.1725-.0621h3.8211c.28 0 .42 0 .527-.0545.0941-.0479.1706-.1244.2185-.2185.0545-.107.0545-.247.0545-.527v-.4c0-.28 0-.42004-.0545-.52699-.0479-.09409-.1244-.17058-.2185-.21851-.107-.0545-.247-.0545-.527-.0545z"/><path d="m23 15.1c0-.5601 0-.8401-.109-1.054-.0959-.1882-.2489-.3411-.437-.437-.2139-.109-.4939-.109-1.054-.109h-2.9467c-.5746 0-.7419.0036-.896.031-.1545.0276-.3053.0732-.4491.136-.1435.0627-.2846.1525-.7627.4712l-.6434.429c-.3897.2599-.6843.4565-1.0101.5987-.2878.1256-.5893.2169-.8984.272-.3499.0624-.7041.0623-1.1725.0621h-1.2421c-.4685.0002-.8227.0003-1.1726-.0621-.30912-.0551-.61065-.1464-.89839-.272-.32578-.1422-.62041-.3388-1.01005-.5987l-.64343-.429c-.4781-.3187-.61925-.4085-.76271-.4712-.14387-.0628-.29463-.1084-.44918-.136-.15409-.0274-.32135-.031-.89597-.031h-2.94667c-.56006 0-.84008 0-1.05399.109-.18817.0959-.34115.2488-.43702.437-.108994.2139-.108994.4939-.108994 1.054v1.7385c-.000016.5272-.00003.982.030574 1.3565.0323.3954.10361.7886.29641 1.167.28762.5645.74656 1.0234 1.31105 1.311.37838.1928.7716.2641 1.16694.2964.37457.0306.82932.0306 1.35646.0306h13.67717c.5271 0 .9819 0 1.3564-.0306.3954-.0323.7886-.1036 1.167-.2964.5645-.2876 1.0234-.7465 1.311-1.311.1928-.3784.2641-.7716.2964-1.167.0306-.3745.0306-.8293.0306-1.3564z"/></g></svg>

<svg width="24" height="24" viewBox="0 0 24 24" fill="none" xmlns="http://www.w3.org/2000/svg">
<path d="M5.16146 3L18.8385 3C19.3657 2.99999 19.8205 2.99997 20.195 3.03057C20.5904 3.06288 20.9836 3.13419 21.362 3.32699C21.9265 3.61461 22.3854 4.07355 22.673 4.63803C22.8658 5.01641 22.9371 5.40963 22.9694 5.80498C22.972 5.83682 22.9744 5.86869 22.9767 5.90056C23.0129 6.42084 23.0311 6.68098 22.9281 6.91004C22.8415 7.10265 22.6747 7.28155 22.4885 7.38133C22.2672 7.5 21.9781 7.5 21.4 7.5H2.6C2.02187 7.5 1.73281 7.5 1.51146 7.38133C1.32534 7.28155 1.15849 7.10265 1.0719 6.91004C0.968912 6.68098 0.987054 6.42084 1.02334 5.90056C1.02556 5.86868 1.02797 5.83682 1.03057 5.80498C1.06287 5.40963 1.13419 5.01641 1.32698 4.63803C1.6146 4.07355 2.07354 3.6146 2.63803 3.32698C3.01641 3.13419 3.40963 3.06287 3.80497 3.03057C4.17952 2.99997 4.63434 2.99998 5.16146 3Z" fill="#801ED7"/>
<path d="M1.8 9.5C1.51997 9.5 1.37996 9.5 1.273 9.5545C1.17892 9.60243 1.10243 9.67892 1.05449 9.77301C0.999996 9.87996 0.999996 10.02 0.999996 10.3V10.7C0.999996 10.98 0.999996 11.12 1.05449 11.227C1.10243 11.3211 1.17892 11.3976 1.273 11.4455C1.37996 11.5 1.51997 11.5 1.8 11.5L5.62104 11.5C6.08944 11.4998 6.44366 11.4997 6.79362 11.5621C7.10271 11.6172 7.40424 11.7085 7.69198 11.8341C8.01776 11.9763 8.31238 12.1729 8.702 12.4328L9.34546 12.8618C9.82357 13.1805 9.96472 13.2703 10.1082 13.333C10.252 13.3958 10.4028 13.4414 10.5573 13.469C10.7114 13.4964 10.8787 13.5 11.4533 13.5H12.5467C13.1213 13.5 13.2885 13.4964 13.4426 13.469C13.5972 13.4414 13.748 13.3958 13.8918 13.333C14.0353 13.2703 14.1764 13.1805 14.6545 12.8618L15.2979 12.4328C15.6876 12.1729 15.9822 11.9763 16.308 11.8341C16.5958 11.7085 16.8973 11.6172 17.2064 11.5621C17.5563 11.4997 17.9105 11.4998 18.3789 11.5L22.2 11.5C22.48 11.5 22.62 11.5 22.727 11.4455C22.8211 11.3976 22.8976 11.3211 22.9455 11.227C23 11.12 23 10.98 23 10.7V10.3C23 10.02 23 9.87996 22.9455 9.77301C22.8976 9.67892 22.8211 9.60243 22.727 9.5545C22.62 9.5 22.48 9.5 22.2 9.5H1.8Z" fill="#801ED7"/>
<path d="M23 15.1C23 14.5399 23 14.2599 22.891 14.046C22.7951 13.8578 22.6421 13.7049 22.454 13.609C22.2401 13.5 21.9601 13.5 21.4 13.5H18.4533C17.8787 13.5 17.7114 13.5036 17.5573 13.531C17.4028 13.5586 17.252 13.6042 17.1082 13.667C16.9647 13.7297 16.8236 13.8195 16.3455 14.1382L15.7021 14.5672C15.3124 14.8271 15.0178 15.0237 14.692 15.1659C14.4042 15.2915 14.1027 15.3828 13.7936 15.4379C13.4437 15.5003 13.0895 15.5002 12.6211 15.5H11.379C10.9105 15.5002 10.5563 15.5003 10.2064 15.4379C9.89728 15.3828 9.59575 15.2915 9.30801 15.1659C8.98223 15.0237 8.6876 14.8271 8.29796 14.5672L7.65453 14.1382C7.17643 13.8195 7.03528 13.7297 6.89182 13.667C6.74795 13.6042 6.59719 13.5586 6.44264 13.531C6.28855 13.5036 6.12129 13.5 5.54667 13.5H2.6C2.03994 13.5 1.75992 13.5 1.54601 13.609C1.35784 13.7049 1.20486 13.8578 1.10899 14.046C0.999996 14.2599 0.999996 14.5399 0.999996 15.1V16.8385C0.99998 17.3657 0.999966 17.8205 1.03057 18.195C1.06287 18.5904 1.13418 18.9836 1.32698 19.362C1.6146 19.9265 2.07354 20.3854 2.63803 20.673C3.01641 20.8658 3.40963 20.9371 3.80497 20.9694C4.17954 21 4.63429 21 5.16143 21L18.8386 21C19.3657 21 19.8205 21 20.195 20.9694C20.5904 20.9371 20.9836 20.8658 21.362 20.673C21.9265 20.3854 22.3854 19.9265 22.673 19.362C22.8658 18.9836 22.9371 18.5904 22.9694 18.195C23 17.8205 23 17.3657 23 16.8386V15.1Z" fill="#801ED7"/>
</svg>
